!!!COM:	Pierre de la Rue
**kern	**kern
*part2	*part1
*staff2	*staff1
*clefF4	*clefGv2
*k[b-]	*k[b-]
*M2/1	*M2/1
=1-	=1-
0F	1r
.	1F
=2	=2
1F	2F
.	2.A
[1F	.
.	4B-
.	4c
.	4A
=3	=3
1F]	2d
.	1c
[1E	.
.	4B-
.	4A
=4	=4
1E]	2G
.	2c
[1F	2A
.	[2d
=5	=5
1F]	2d]
.	1c
1A	.
.	2f
=6	=6
0G	2e
.	1d
.	[2g
=7	=7
2E	2g]
2F	4f
.	4e
1G	2.d
.	4e
=8	=8
1r	0e
1C	.
=9	=9
2C	1r
2.E	.
.	[1e
4F	.
4G	.
4E	.
=10	=10
2A	1e]
1G	.
.	1e
4F	.
4E	.
=11	=11
2.D	1f
4E	.
2F	1d
[2G	.
=12	=12
2G]	0e
2C	.
1C	.
=13	=13
2r	2r
1F	1c
2F	2A
=14	=14
2G	2B-
2.A	2c
.	1F
4B-	.
2c	.
=15	=15
1F	2r
.	2.c
[1c	.
.	4F
.	4c
.	4d
=16	=16
2c]	2e
2A	1f
2B-	.
2c	2e
=17	=17
1F	2.f
.	4e
2r	4d
.	4c
[2G	2e
=18	=18
2G]	2d
2E	1c
2F	.
2G	2B-
=19	=19
4C	2.c
4D	.
4E	.
4F	4A
2G	2B-
[2A	2c
=20	=20
4A]	2F
4G	.
1F	2A
.	1G
2E	.
=21	=21
0F	0F
==	==
*-	*-
